inst/assets/svg/wi-night-showers.svg

<?xml version="1.0" encoding="UTF-8"?>
<svg xmlns="http://www.w3.org/2000/svg" xmlns:xlink="http://www.w3.org/1999/xlink" width="30pt" height="30pt" viewBox="0 0 30 30" version="1.1">
<g id="surface756">
<path style=" stroke:none;fill-rule:nonzero;fill:rgb(0%,0%,0%);fill-opacity:1;" d="M 4.25 16.921875 C 4.25 17.578125 4.371094 18.199219 4.628906 18.800781 C 4.878906 19.398438 5.21875 19.910156 5.648438 20.351563 C 6.078125 20.789063 6.589844 21.140625 7.179688 21.410156 C 7.769531 21.679688 8.398438 21.828125 9.058594 21.859375 C 9.179688 21.859375 9.238281 21.800781 9.238281 21.691406 L 9.238281 20.351563 C 9.238281 20.238281 9.179688 20.179688 9.058594 20.179688 C 8.210938 20.140625 7.480469 19.789063 6.878906 19.148438 C 6.28125 18.511719 5.980469 17.761719 5.980469 16.910156 C 5.980469 16.058594 6.261719 15.328125 6.820313 14.710938 C 7.378906 14.089844 8.078125 13.75 8.921875 13.679688 L 9.449219 13.609375 C 9.550781 13.609375 9.601563 13.558594 9.601563 13.460938 L 9.679688 12.929688 C 9.789063 11.839844 10.261719 10.929688 11.078125 10.199219 C 11.898438 9.46875 12.859375 9.109375 13.960938 9.109375 C 15.050781 9.109375 16 9.46875 16.808594 10.191406 C 17.628906 10.910156 18.089844 11.808594 18.210938 12.890625 L 18.28125 13.460938 C 18.28125 13.578125 18.339844 13.648438 18.460938 13.648438 L 20.078125 13.648438 C 20.96875 13.648438 21.730469 13.96875 22.371094 14.609375 C 23.011719 15.25 23.328125 16.019531 23.328125 16.921875 C 23.328125 17.769531 23.03125 18.519531 22.441406 19.160156 C 21.851563 19.800781 21.121094 20.140625 20.269531 20.191406 C 20.140625 20.191406 20.078125 20.25 20.078125 20.359375 L 20.078125 21.699219 C 20.078125 21.808594 20.140625 21.871094 20.269531 21.871094 C 21.609375 21.808594 22.738281 21.300781 23.660156 20.351563 C 24.589844 19.398438 25.050781 18.261719 25.050781 16.929688 C 25.050781 16.289063 24.910156 15.621094 24.640625 14.929688 C 25.398438 13.941406 25.769531 12.839844 25.769531 11.640625 C 25.769531 10.699219 25.53125 9.820313 25.058594 9.011719 C 24.589844 8.199219 23.949219 7.558594 23.140625 7.089844 C 22.328125 6.621094 21.460938 6.378906 20.519531 6.378906 C 18.988281 6.378906 17.699219 6.941406 16.660156 8.050781 C 15.789063 7.621094 14.890625 7.398438 13.960938 7.398438 C 12.539063 7.398438 11.28125 7.839844 10.191406 8.71875 C 9.101563 9.601563 8.398438 10.730469 8.089844 12.101563 C 6.960938 12.359375 6.039063 12.941406 5.328125 13.820313 C 4.621094 14.699219 4.25 15.738281 4.25 16.921875 Z M 9.640625 23.671875 C 9.640625 23.839844 9.691406 24 9.789063 24.148438 C 9.890625 24.300781 10.050781 24.421875 10.269531 24.488281 C 10.378906 24.550781 10.511719 24.570313 10.640625 24.558594 C 10.769531 24.550781 10.910156 24.480469 11.039063 24.359375 C 11.171875 24.238281 11.269531 24.078125 11.320313 23.878906 L 11.601563 22.871094 C 11.660156 22.621094 11.640625 22.390625 11.519531 22.199219 C 11.398438 22 11.230469 21.878906 10.988281 21.828125 C 10.78125 21.761719 10.570313 21.78125 10.359375 21.898438 C 10.148438 22.019531 10.019531 22.179688 9.949219 22.398438 L 9.671875 23.441406 C 9.648438 23.53125 9.640625 23.609375 9.640625 23.671875 Z M 10.949219 18.898438 C 10.960938 19.089844 11.011719 19.269531 11.121094 19.421875 C 11.230469 19.570313 11.390625 19.671875 11.601563 19.699219 C 11.78125 19.730469 11.871094 19.75 11.898438 19.75 C 12.28125 19.75 12.53125 19.53125 12.660156 19.089844 L 12.941406 18.089844 C 13 17.859375 12.980469 17.640625 12.859375 17.429688 C 12.738281 17.21875 12.570313 17.078125 12.328125 17.011719 C 12.109375 16.949219 11.890625 16.96875 11.691406 17.089844 C 11.488281 17.210938 11.359375 17.378906 11.289063 17.609375 L 10.988281 18.660156 C 10.96875 18.78125 10.949219 18.859375 10.949219 18.898438 Z M 12.191406 26.800781 C 12.191406 26.980469 12.238281 27.140625 12.339844 27.300781 C 12.441406 27.460938 12.601563 27.570313 12.820313 27.628906 C 12.960938 27.660156 13.050781 27.679688 13.101563 27.679688 C 13.191406 27.679688 13.308594 27.648438 13.480469 27.578125 C 13.648438 27.5 13.78125 27.308594 13.859375 27.03125 L 14.160156 26.019531 C 14.21875 25.769531 14.191406 25.539063 14.078125 25.339844 C 13.960938 25.140625 13.789063 25.011719 13.558594 24.96875 C 13.339844 24.898438 13.128906 24.921875 12.921875 25.039063 C 12.710938 25.160156 12.570313 25.328125 12.5 25.550781 L 12.21875 26.589844 C 12.199219 26.671875 12.191406 26.738281 12.191406 26.800781 Z M 13.519531 22 C 13.519531 22.171875 13.570313 22.328125 13.679688 22.488281 C 13.789063 22.648438 13.949219 22.761719 14.171875 22.820313 C 14.390625 22.890625 14.609375 22.871094 14.800781 22.769531 C 15 22.671875 15.128906 22.480469 15.210938 22.210938 L 15.488281 21.199219 C 15.558594 20.949219 15.539063 20.730469 15.421875 20.53125 C 15.300781 20.339844 15.128906 20.21875 14.890625 20.171875 C 14.671875 20.089844 14.460938 20.121094 14.25 20.230469 C 14.039063 20.339844 13.910156 20.519531 13.839844 20.738281 L 13.558594 21.78125 C 13.539063 21.878906 13.519531 21.949219 13.519531 22 Z M 16.371094 23.75 C 16.359375 23.910156 16.398438 24.058594 16.511719 24.210938 C 16.621094 24.359375 16.769531 24.46875 16.96875 24.539063 L 17.21875 24.570313 C 17.328125 24.578125 17.460938 24.550781 17.601563 24.5 C 17.808594 24.421875 17.949219 24.238281 18.019531 23.960938 L 18.300781 22.910156 C 18.371094 22.679688 18.351563 22.460938 18.230469 22.269531 C 18.109375 22.070313 17.941406 21.941406 17.71875 21.871094 C 17.46875 21.808594 17.25 21.839844 17.050781 21.949219 C 16.851563 22.058594 16.730469 22.25 16.691406 22.480469 L 16.398438 23.480469 C 16.378906 23.648438 16.371094 23.738281 16.371094 23.75 Z M 17.71875 18.949219 C 17.71875 19.121094 17.769531 19.289063 17.878906 19.449219 C 17.988281 19.609375 18.148438 19.710938 18.359375 19.75 L 18.609375 19.78125 C 19.039063 19.78125 19.308594 19.570313 19.421875 19.160156 L 19.699219 18.128906 C 19.761719 17.878906 19.730469 17.648438 19.621094 17.449219 C 19.511719 17.25 19.320313 17.128906 19.089844 17.078125 C 18.859375 17.011719 18.640625 17.03125 18.449219 17.148438 C 18.25 17.269531 18.121094 17.441406 18.058594 17.679688 L 17.761719 18.699219 C 17.738281 18.820313 17.71875 18.898438 17.71875 18.949219 Z M 18.058594 9.050781 C 18.730469 8.410156 19.539063 8.078125 20.511719 8.078125 C 21.488281 8.078125 22.320313 8.429688 23 9.128906 C 23.691406 9.828125 24.03125 10.660156 24.03125 11.640625 C 24.03125 12.28125 23.871094 12.871094 23.550781 13.410156 C 22.589844 12.449219 21.429688 11.96875 20.058594 11.96875 L 19.738281 11.96875 C 19.5 10.871094 18.941406 9.898438 18.058594 9.050781 Z M 18.058594 9.050781 "/>
</g>
</svg>

<?xml version="1.0" encoding="utf-8"?>
<!-- Generator: Adobe Illustrator 22.0.1, SVG Export Plug-In . SVG Version: 6.00 Build 0)  -->
<svg version="1.1" id="Layer_1" xmlns="http://www.w3.org/2000/svg" xmlns:xlink="http://www.w3.org/1999/xlink" x="0px" y="0px"
	 viewBox="0 0 30 30" style="enable-background:new 0 0 30 30;" xml:space="preserve">
<path d="M4.25,16.92c0,0.66,0.12,1.28,0.38,1.88c0.25,0.6,0.59,1.11,1.02,1.55c0.43,0.44,0.94,0.79,1.53,1.06s1.22,0.42,1.88,0.45
	c0.12,0,0.18-0.06,0.18-0.17v-1.34c0-0.11-0.06-0.17-0.18-0.17c-0.85-0.04-1.58-0.39-2.18-1.03s-0.9-1.39-0.9-2.24
	s0.28-1.58,0.84-2.2s1.26-0.96,2.1-1.03l0.53-0.07c0.1,0,0.15-0.05,0.15-0.15l0.08-0.53c0.11-1.09,0.58-2,1.4-2.73
	c0.82-0.73,1.78-1.09,2.88-1.09c1.09,0,2.04,0.36,2.85,1.08c0.82,0.72,1.28,1.62,1.4,2.7l0.07,0.57c0,0.12,0.06,0.19,0.18,0.19h1.62
	c0.89,0,1.65,0.32,2.29,0.96c0.64,0.64,0.96,1.41,0.96,2.31c0,0.85-0.3,1.6-0.89,2.24s-1.32,0.98-2.17,1.03
	c-0.13,0-0.19,0.06-0.19,0.17v1.34c0,0.11,0.06,0.17,0.19,0.17c1.34-0.06,2.47-0.57,3.39-1.52c0.93-0.95,1.39-2.09,1.39-3.42
	c0-0.64-0.14-1.31-0.41-2c0.76-0.99,1.13-2.09,1.13-3.29c0-0.94-0.24-1.82-0.71-2.63s-1.11-1.45-1.92-1.92
	c-0.81-0.47-1.68-0.71-2.62-0.71c-1.53,0-2.82,0.56-3.86,1.67c-0.87-0.43-1.77-0.65-2.7-0.65c-1.42,0-2.68,0.44-3.77,1.32
	s-1.79,2.01-2.1,3.38c-1.13,0.26-2.05,0.84-2.76,1.72S4.25,15.74,4.25,16.92z M9.64,23.67c0,0.17,0.05,0.33,0.15,0.48
	c0.1,0.15,0.26,0.27,0.48,0.34c0.11,0.06,0.24,0.08,0.37,0.07c0.13-0.01,0.27-0.08,0.4-0.2c0.13-0.12,0.23-0.28,0.28-0.48l0.28-1.01
	c0.06-0.25,0.04-0.48-0.08-0.67c-0.12-0.2-0.29-0.32-0.53-0.37c-0.21-0.07-0.42-0.05-0.63,0.07s-0.34,0.28-0.41,0.5l-0.28,1.04
	C9.65,23.53,9.64,23.61,9.64,23.67z M10.95,18.9c0.01,0.19,0.06,0.37,0.17,0.52s0.27,0.25,0.48,0.28c0.18,0.03,0.27,0.05,0.3,0.05
	c0.38,0,0.63-0.22,0.76-0.66l0.28-1c0.06-0.23,0.04-0.45-0.08-0.66c-0.12-0.21-0.29-0.35-0.53-0.42c-0.22-0.06-0.44-0.04-0.64,0.08
	s-0.33,0.29-0.4,0.52l-0.3,1.05C10.97,18.78,10.95,18.86,10.95,18.9z M12.19,26.8c0,0.18,0.05,0.34,0.15,0.5
	c0.1,0.16,0.26,0.27,0.48,0.33c0.14,0.03,0.23,0.05,0.28,0.05c0.09,0,0.21-0.03,0.38-0.1c0.17-0.08,0.3-0.27,0.38-0.55l0.3-1.01
	c0.06-0.25,0.03-0.48-0.08-0.68c-0.12-0.2-0.29-0.33-0.52-0.37c-0.22-0.07-0.43-0.05-0.64,0.07c-0.21,0.12-0.35,0.29-0.42,0.51
	l-0.28,1.04C12.2,26.67,12.19,26.74,12.19,26.8z M13.52,22c0,0.17,0.05,0.33,0.16,0.49c0.11,0.16,0.27,0.27,0.49,0.33
	c0.22,0.07,0.44,0.05,0.63-0.05c0.2-0.1,0.33-0.29,0.41-0.56l0.28-1.01c0.07-0.25,0.05-0.47-0.07-0.67
	c-0.12-0.19-0.29-0.31-0.53-0.36c-0.22-0.08-0.43-0.05-0.64,0.06s-0.34,0.29-0.41,0.51l-0.28,1.04C13.54,21.88,13.52,21.95,13.52,22
	z M16.37,23.75c-0.01,0.16,0.03,0.31,0.14,0.46s0.26,0.26,0.46,0.33l0.25,0.03c0.11,0.01,0.24-0.02,0.38-0.07
	c0.21-0.08,0.35-0.26,0.42-0.54l0.28-1.05c0.07-0.23,0.05-0.45-0.07-0.64c-0.12-0.2-0.29-0.33-0.51-0.4
	c-0.25-0.06-0.47-0.03-0.67,0.08s-0.32,0.3-0.36,0.53l-0.29,1C16.38,23.65,16.37,23.74,16.37,23.75z M17.72,18.95
	c0,0.17,0.05,0.34,0.16,0.5c0.11,0.16,0.27,0.26,0.48,0.3l0.25,0.03c0.43,0,0.7-0.21,0.81-0.62l0.28-1.03
	c0.06-0.25,0.03-0.48-0.08-0.68s-0.3-0.32-0.53-0.37c-0.23-0.07-0.45-0.05-0.64,0.07c-0.2,0.12-0.33,0.29-0.39,0.53l-0.3,1.02
	C17.74,18.82,17.72,18.9,17.72,18.95z M18.06,9.05c0.67-0.64,1.48-0.97,2.45-0.97c0.98,0,1.81,0.35,2.49,1.05
	c0.69,0.7,1.03,1.53,1.03,2.51c0,0.64-0.16,1.23-0.48,1.77c-0.96-0.96-2.12-1.44-3.49-1.44h-0.32C19.5,10.87,18.94,9.9,18.06,9.05z"
	/>
</svg>
